!!!COM: Krebs, Johann Ludwig
!!!OTL: Fuga
!!!SCT: II.13
!!!SCA: Johann Ludwig Krebs, Sämtliche Orgelwerke. Herausgegeven von Gerhard Weinberger.
**kern	**kern	**kern	**kern
*MM76	*MM76	*MM76	*MM76
*k[b-]	*k[b-]	*k[b-]	*k[b-]
*M4/4	*M4/4	*M4/4	*M4/4
*tb64	*tb64	*tb64	*tb64
=1	=1	=1	=1
1r	8r	1r	1r
.	8F	.	.
.	8F	.	.
.	8F	.	.
.	16F	.	.
.	16A	.	.
.	16G	.	.
.	16B-	.	.
.	16A	.	.
.	16c	.	.
.	16B-	.	.
.	16d	.	.
=2	=2	=2	=2
1r	16c	1r	1r
.	16f	.	.
.	16e	.	.
.	16d	.	.
.	16c	.	.
.	16B-	.	.
.	16A	.	.
.	16G	.	.
.	8F	.	.
.	8f	.	.
.	8A	.	.
.	8B	.	.
=3	=3	=3	=3
1r	16c	8r	1r
.	16G	.	.
.	16F	8c	.
.	16G	.	.
.	16E	8c	.
.	16F	.	.
.	16D	8c	.
.	16E	.	.
.	8C	16c	.
.	.	16e	.
.	16c	16d	.
.	16B	16f	.
.	8c	16e	.
.	.	16g	.
.	8c	16f	.
.	.	16a	.
=4	=4	=4	=4
1r	16C	16g	1r
.	16E	16cc	.
.	16D	16b	.
.	16F	16a	.
.	16E	16g	.
.	16G	16f	.
.	16BB	16e	.
.	16G	16d	.
.	16E	8c	.
.	16G	.	.
.	16F	8cc	.
.	16E	.	.
.	16F	8d	.
.	16A	.	.
.	16G	8e	.
.	16B-	.	.
=5	=5	=5	=5
1r	8A	16f	8r
.	.	16c	.
.	8G	16B-	8f
.	.	16c	.
.	8F	16A	8f
.	.	16B-	.
.	8E	16G	8f
.	.	16A	.
.	4.F	8F	16f
.	.	.	16a
.	.	16f	16g
.	.	16e	16b-
.	.	8f	16a
.	.	.	16cc
.	8G	8f	16b-
.	.	.	16dd
=6	=6	=6	=6
1r	8A	4.f	16cc
.	.	.	16ff
.	8B-	.	16ee
.	.	.	16dd
.	4c	.	16cc
.	.	.	16b-
.	.	8e	16a
.	.	.	16g
.	16A	8f	8f
.	16G	.	.
.	16F	8a	8ff
.	16E	.	.
.	16D	8f	8a
.	16G	.	.
.	16F	8d	8b
.	16G	.	.
=7	=7	=7	=7
8r	8C	8e	16cc
.	.	.	16g
8C	8B	8d	16f
.	.	.	16g
8C	8G	8c	16e
.	.	.	16f
8C	8F	8B	16d
.	.	.	16e
16C	8E	8A	8c
16E	.	.	.
16D	8c	8f	16cc
16F	.	.	16b
16E	8c	8g	8cc
16G	.	.	.
16F	8c	8a	8cc
16A	.	.	.
=8	=8	=8	=8
16G	16c	16e	8cc
16c	16d	16f	.
16B	8e	8g	8cc
16c	.	.	.
16G	4r	4r	4r
16c	.	.	.
16E	.	.	.
16G	.	.	.
8C	8G	8e	16r
.	.	.	16cc
8c	8e	8g	16gg
.	.	.	16cc
8D	8d	8f	16b-
.	.	.	16a
8E	8c	8g	16b-
.	.	.	16cc
=9	=9	=9	=9
8F	8c	[2f	16a
.	.	.	16ff
8D	8B-	.	16gg
.	.	.	16ff
8C	4A	.	16ee-
.	.	.	16dd
8F	.	.	16ee-
.	.	.	16cc
8BB-	16B-	4f]	[2dd
.	16d	.	.
8B-	16e-	.	.
.	16d	.	.
8A	16c	4f#	.
.	16B	.	.
8D	16c	.	.
.	16A	.	.
=10	=10	=10	=10
8G	8B	16r	8dd]
.	.	16g	.
8E	8c	16a	8cc
.	.	16g	.
8D	16d	16f	8r
.	16c	16e	.
8G	16d	16f	8b
.	16B	16d	.
8C	16G	8e	4cc
.	16c	.	.
8AA	16d	8f	.
.	16c	.	.
8GG	16B-	8d	8ff
.	16A	.	.
8C	16B-	[8c	8ee
.	16G	.	.
=11	=11	=11	=11
16FF	8A	4c]	8ff
16F	.	.	.
16E-	8F	.	8aa
16F	.	.	.
16D	8F	4r	8bb-
16F	.	.	.
16BB-	8F	.	8dd
16F	.	.	.
8AA	16F	2r	8cc
.	16A	.	.
8C	16G	.	8ee
.	16B-	.	.
[4FF	16A	.	16ff
.	16c	.	16a
.	16B-	.	16g
.	16d	.	16b-
=12	=12	=12	=12
8FF]	16c	1r	16a
.	16f	.	16aa
8BB-	16e	.	16gg
.	16d	.	16ff
8C	16c	.	16ee
.	16B-	.	16dd
8CC	16A	.	16cc
.	16G	.	16b-
8FF	8F	.	16a
.	.	.	16cc
8A	8f	.	16dd
.	.	.	16ee
8D	8A	.	16ff
.	.	.	16ee
8G	8B	.	16ff
.	.	.	16dd
=13	=13	=13	=13
16C	8c	2r	8ee
16G	.	.	.
16F	8a	.	8cc
16G	.	.	.
16E	8g	.	8cc
16F	.	.	.
16D	8f	.	8cc
16E	.	.	.
[2C	8e	8r	16cc
.	.	.	16ee
.	8f	8c	16dd
.	.	.	16ff
.	8g	8c	16ee
.	.	.	16gg
.	8a	8c	16ff
.	.	.	16aa
=14	=14	=14	=14
4C]	8c	16c	16gg
.	.	16e	16ccc
.	8G	16d	16bb
.	.	16f	16aa
8r	8c	16e	16gg
.	.	16g	16ff
8GG	8B	16f	16ee
.	.	16a	16dd
4C	4e	16g	8cc
.	.	16cc	.
.	.	16b	8ccc
.	.	16a	.
8BB	8d	16g	8dd
.	.	16f	.
8BB-	[8c	16e	8ee
.	.	16d	.
=15	=15	=15	=15
8AA	8c]	8c	16ff
.	.	.	16ee
8AA-	[8f	8cc	8ff
8GG	16f]	8d	8b
.	16f	.	.
8GG-	16e	8e	8b-
.	16d	.	.
8FF	4c	4.f	16a
.	.	.	16cc
8AA	.	.	16ff
.	.	.	16cc
8GG	16d	.	8b
.	8.G	.	.
8C	.	8e	8b-
=16	=16	=16	=16
16FF	8F	8c	8a
16F	.	.	.
16D	8r	8f	8b-
16F	.	.	.
16AA	4r	8f	8cc
16F	.	.	.
16BB-	.	8f	8dd
16F	.	.	.
8FF	8r	16f	8cc
.	.	16a	.
8r	8F	16g	8ee
.	.	16b-	.
8r	8F	16a	8ff
.	.	16cc	.
16D	8F	16b-	16b-
16BB-	.	16dd	16bb-
=17	=17	=17	=17
8F	16F	16cc	8aa
.	16A	16ff	.
8C	16G	16ee	8r
.	16B-	16dd	.
8F	16A	16cc	4r
.	16c	16b-	.
8BB-	16B-	16a	.
.	16d	16g	.
8AA	16c	8f	2r
.	16f	.	.
8C	16e	8ff	.
.	16d	.	.
8F	16c	8a	.
.	16B-	.	.
8G	16A	8b-	.
.	16G	.	.
=18	=18	=18	=18
8A	8F	8cc	2r
8F	8f	8aa	.
8D	8A	16gg	.
.	.	16ff	.
8G	8B	16ee	.
.	.	16dd	.
8C	8c	16ee	8r
.	.	16cc	.
8D	8r	16b	8cc
.	.	16a	.
8E	16r	8g	8cc
.	16f	.	.
8G	16e	8g	8cc
.	16d	.	.
=19	=19	=19	=19
8C	16e	8g	16cc
.	16g	.	16ee
8C	16B	8g	16dd
.	16d	.	16ff
8C	16c	8g	16ee
.	16e	.	16gg
8C	16d	8b	16ff
.	16f	.	16aa
16C	16e	8cc	16gg
16E	16g	.	16ccc
16D	8f	8dd	16bb
16F	.	.	16aa
16E	8g	8cc	16gg
16G	.	.	16ff
16F	8a	8cc	16ee
16A	.	.	16dd
=20	=20	=20	=20
16G	8e	8g	8cc
16c	.	.	.
16B	8g	8ee	8ccc
16c	.	.	.
16G	8g	8r	8dd
16c	.	.	.
16E	8g	8cc	8ee
16G	.	.	.
8C	16a	8cc	16ff
.	16f	.	16dd
8c	8g	8cc	8ee
8D	16r	8b	8ff
.	16f	.	.
8E	16e	8b-	[8gg
.	16d	.	.
=21	=21	=21	=21
16F	4c	4a	8gg]
16E	.	.	.
16F	.	.	8ff
16C	.	.	.
16G	8B-	8g	8ee
16C	.	.	.
16A	16c	[8f	[8ee-
16F	16A	.	.
8B-	4B-	8f]	16ee-]
.	.	.	16cc#
8BB-	.	8g	8dd
16A	8c	8a	8ff#
16D	.	.	.
16B	16d	8g	[8ff
16G	16B	.	.
=22	=22	=22	=22
[1C	[4c	8.g	16ff]
.	.	.	16dd
.	.	.	[8ee
.	.	16a	.
.	8c]	8.b-	8ee]
.	16d	.	16ff
.	16e	16b-	[16gg
.	16f	4a	16gg]
.	16e	.	16cc
.	16d	.	16ff
.	16c	.	16ee
.	4B	8r	4ff
.	.	16f	.
.	.	16a-	.
=23	=23	=23	=23
8C]	8c	8g	8ee
8r	8r	8cc	8r
4r	4r	8cc	4r
.	.	8cc	.
2r	2r	16cc	8r
.	.	16a	.
.	.	16b-	8ccc
.	.	16g	.
.	.	16a	8ccc
.	.	16f	.
.	.	16g	8ccc
.	.	16e	.
=24	=24	=24	=24
1r	1r	16f	16ccc
.	.	16c	16aa
.	.	16d	16bb-
.	.	16e	16gg
.	.	16f	16aa
.	.	16g	16ee
.	.	16a	16ff
.	.	16b-	16gg
.	.	8cc	16ee
.	.	.	16cc
.	.	8c	16dd
.	.	.	16ee
.	.	8a	16ff
.	.	.	16gg
.	.	8g	16aa
.	.	.	16bb-
=25	=25	=25	=25
1r	1r	16f	16aa
.	.	16a	16ccc
.	.	16g	8ff
.	.	16b-	.
.	.	16a	8ff
.	.	16cc	.
.	.	16g	8ff
.	.	16b-	.
.	.	16a	16ff
.	.	16g	16ee
.	.	16a	16ff
.	.	16f	16dd
.	.	16g	16ee
.	.	16e	16cc
.	.	16f	16dd
.	.	16d	16b
=26	=26	=26	=26
1r	1r	8e	16cc
.	.	.	16g
.	.	8f	16a
.	.	.	16b
.	.	8e	16cc
.	.	.	16dd
.	.	8d	16ee
.	.	.	16ff
.	.	16c	8gg
.	.	16B	.
.	.	16c	8g
.	.	16e	.
.	.	16g	8ee
.	.	16a	.
.	.	16f	8dd
.	.	16g	.
=27	=27	=27	=27
1r	8r	16e	16cc
.	.	16g	16ee
.	8c	8b	16dd
.	.	.	16ff
.	8c	8cc	16ee
.	.	.	16gg
.	8c	8dd	16ff
.	.	.	16aa
.	16c	8.ee	16gg
.	16A	.	16ff
.	16B-	.	8gg
.	16G	16b-	.
.	16A	16cc	8ff
.	16F	16a	.
.	16G	8b-	16ee
.	16E	.	16gg
=28	=28	=28	=28
1r	16F	8a	8ff
.	16C	.	.
.	16D	8cc	8aa
.	16E	.	.
.	16F	8b-	8gg
.	16G	.	.
.	16A	8a	8ff
.	16B-	.	.
.	8c	4g	16ee
.	.	.	16cc
.	8C	.	16dd
.	.	.	16ee
.	8A	16cc	8ff
.	.	16g	.
.	8G	16a	8ee
.	.	16b-	.
=29	=29	=29	=29
8r	16F	16a	4.ff
.	16A	16cc	.
8F	16G	16b-	.
.	16B-	16dd	.
8F	16A	16cc	.
.	16c	16a	.
8F	16G	16b-	8cc
.	16B-	16g	.
16F	4c	4a	[4ff
16D	.	.	.
16E-	.	.	.
16C	.	.	.
16D	8f	8.b-	16ff]
16BB-	.	.	16dd
16C	8f	.	16ee-
16AA	.	16cc	16cc
=30	=30	=30	=30
16BB-	4f	4b-	4dd
16FF	.	.	.
16GG	.	.	.
16AA	.	.	.
16BB-	8r	8r	8r
16FF	.	.	.
16D	8d	16f	8b-
16BB-	.	16g	.
8F	16c	4f	8a
.	16d	.	.
8FF	16e-	.	8ff
.	16c	.	.
8D	16d	8f	8b-
.	16f	.	.
8C	16e-	8f	8a
.	16c	.	.
=31	=31	=31	=31
16BB-	8d	8f	8b-
16B-	.	.	.
16A	16c	8cc	8gg
16B-	16d	.	.
16G	16B	8dd	8gg
16A	16c	.	.
16F	16A	8dd	8gg
16G	16B	.	.
8E	8G	8cc	16gg
.	.	.	16ee
8A	[8c	8f	16ff
.	.	.	16dd
8G	16c]	[4g	16ee
.	16e	.	16cc
8GG	16f	.	16dd
.	16d	.	16b
=32	=32	=32	=32
4C	8e	8g]	16cc
.	.	.	16g
.	8d	8f	16a
.	.	.	16b
8r	8c	8e	16cc
.	.	.	16dd
8D	8B	8f	16ee
.	.	.	16ff
16E	[4c	4e	8gg
16D	.	.	.
16E	.	.	8g
16C	.	.	.
8G	8c]	8.g	8ee
8GG	16A	.	8dd
.	16B-	16f	.
=33	=33	=33	=33
16C	8G	8e	8cc
16G	.	.	.
16F	8f	8dd	8aa
16G	.	.	.
16E	8g	8cc#	8aa
16G	.	.	.
16C#	16e	16a	8aa
16E	16g	16cc#	.
16D	16f	8dd	16aa
16F	16a	.	16ff
16C#	16e	8a	16gg
16E	16g	.	16ee
16D	16f	8a	16ff
16F	16a	.	16dd
16E	16c#	8a	16ee
16G	16e	.	16cc#
=34	=34	=34	=34
16F	8f	4a	16dd
16A	.	.	16a
16G	8r	.	16b
16A	.	.	16cc#
16F	8r	8r	16dd
16A	.	.	16ee
16E	8c#	8a	16ff
16A	.	.	16gg
16F	8d	4a	8ff
16A	.	.	.
16D	8f	.	8a
16A	.	.	.
16AA	8a	8dd	8ff
16A	.	.	.
16G	8a	8cc#	8ee
16A	.	.	.
=35	=35	=35	=35
[2D	8f	8a	16dd
.	.	.	16ff
.	8e	8g	16dd
.	.	.	16cc#
.	8d	8f	16dd
.	.	.	16aa
.	8e	8g	16dd
.	.	.	16cc#
16D]	4f	4a	8dd
16F	.	.	.
16E	.	.	8cc#
16G	.	.	.
16F	8r	8r	8dd
16A	.	.	.
16D	8d	8a	8ff
16F	.	.	.
=36	=36	=36	=36
16AA	4c#	4a	4ee
16A	.	.	.
16G#	.	.	.
16A	.	.	.
16B-	8r	8r	8r
16A	.	.	.
16G	8e	8a	8cc#
16A	.	.	.
16D	16f	8a	8dd
16F	16d	.	.
16E	16g	8b-	8cc#
16G	16e	.	.
16F	16f	8a	8dd
16A	16d	.	.
16D	16c#	8a	8ff
16F	16d	.	.
=37	=37	=37	=37
16AA	4c#	4a	4ee
16A	.	.	.
16G#	.	.	.
16A	.	.	.
16B-	8r	8r	8r
16A	.	.	.
16G	8e	8a	8cc#
16A	.	.	.
8D	16f	4a	4dd
.	16g	.	.
8C	16f	.	.
.	16e	.	.
8BB-	16d	8r	8r
.	16e-	.	.
8AA	16d	8a	8ff#
.	16c	.	.
=38	=38	=38	=38
8GG	16B-	4b-	4gg
.	16c	.	.
8FF	16B-	.	.
.	16A	.	.
8EE	16G	8r	8r
.	16A	.	.
8DD	16G	8d	8b
.	16F	.	.
[2CC	8E	4e	4cc
.	8c	.	.
.	8c	4r	4r
.	8c	.	.
=39	=39	=39	=39
1CC_	16c	8r	2r
.	16A	.	.
.	16B-	8cc	.
.	16G	.	.
.	16A	8cc	.
.	16F	.	.
.	16G	8cc	.
.	16E	.	.
.	8F	16cc	8r
.	.	16a	.
.	8e	16b-	8ccc
.	.	16g	.
.	8c	16a	8ccc
.	.	16f	.
.	8B-	16g	8ccc
.	.	16e	.
=40	=40	=40	=40
8CC]	8A	8f	16ccc
.	.	.	16aa
8c	8g	8cc	16bb-
.	.	.	16gg
8c	8a	8cc	16aa
.	.	.	16ff
8c	8b-	8cc	16gg
.	.	.	16ee
16c	8a	8cc	8ff
16A	.	.	.
16B-	8c	8g	8ee
16G	.	.	.
16A	8c	8f	8ff
16F	.	.	.
16G	8c	8g	8b-
16E	.	.	.
=41	=41	=41	=41
16F	16c	4f	4a
16C	16F	.	.
16F	16A	.	.
16E	16G	.	.
16F	16A	8r	8r
16C	16F	.	.
16A	16c	8f	8cc
16F	16A	.	.
8c	16B-	8e	8cc
.	16G	.	.
8C	16A	8g	8ee
.	16B-	.	.
8A	16c	8f	8ff
.	16d	.	.
8G	16c	8g	8ee
.	16B-	.	.
=42	=42	=42	=42
8F	16c	8a	8ff
.	16f	.	.
8FF	16d	8b-	8ff
.	16f	.	.
8FF	16c	8a	8ff
.	16f	.	.
8FF	16B-	8g	8ee
.	16f	.	.
16FF	8c	8a	8ff
16AA	.	.	.
16GG	8c	8b-	8ee
16BB-	.	.	.
16AA	8c	8cc	8ff
16C	.	.	.
16BB-	8f	8b-	8ff
16D	.	.	.
=43	=43	=43	=43
16C	4c	4a	16ff
16F	.	.	16aa
16E	.	.	16gg
16F	.	.	16aa
16C	8r	8r	16ff
16F	.	.	16aa
16AA	16f	16a	16cc
16C	16g	16b-	16ee
8FF	16a	16a	16ff
.	16f	16cc	16aa
8F	16e	16b-	16gg
.	16f	16cc	16aa
8AA	8c	16g	16ee
.	.	16a	16ff
8BB	8d	16g	16ee
.	.	16a-	16ff
=44	=44	=44	=44
4C	4c	4f 4a	8cc
.	.	.	16b
.	.	.	16cc
4CC	4c	4g 4b- 4cc	8dd
.	.	.	8ee
2FF	2c	2f 2a	2ff 2cc
==	==	==	==
*-	*-	*-	*-
!!!ENC: Peter van Kranenburg (peter@musical-style-recognition.net)
!!!END: 2006-11-9
